X:63
T:Soldiers Joy
R:Reel
O:Scotland
M:4/4
K:D
FG|\
AFDF AFDF|A2d2 d2cB|AFDF AFDF|G2E2 E2FG|\
AFDF AFDF|A2d2 d2g2|
fafd egec|d2d2 d2::\
de|\
f2fe fagf|e2ed egfe|
f2fe fagf|edcB A2g2|\
f2fe fagf|e2ed egfe|fafd egec|d2d2d2:|
